X:4469
T:Du ct du bois
R:Kost er hoet
A:Bretagne
O:France
M:4/4
L:1/8
Q:1/4=180
K:D
B|cA Bc dc B2|AF GA F2E2|BA Bc dc B2|AF GA F2E2|
BA Bc dc B2|A/2B/2A/2G/2 FB BA FB|B>A Bc dc B2|AF GA F2E2|
BA Bc dc B2|A/2G/2G/2F/2 GA BA FB|B2 AB dc B2|AF GAF2 E||
